X: 192
T: SLIP JIG: Fig for a Kiss
C: C: Trad.; S: Altan
C: Set Leaders: Olya, Tania, Anton
Z: Anton Zille ed., Oleg Naumov arr.; Josh Kane at The Session
N: https://thesession.org/members/26966/sets/76538
R: Slip Jig
M: 9/8
L: 1/8
Q: 3/8=114
K: Edor
"Em"G2B E2B BAG|"D"F2A D2A AGF|"Em"G2B E2B BAG|"G"B/c/dB "D"AGF DEF|
"Em"G2B E2B BAG|"D"F2A D2A AGF|"Em"G2B E2B BAG|"G"B/c/dB "D"AGF E3||
"Em"g2e g2e edB|"D"f2d dcd fed|"Em"g2e g2e edB|"G"dBG "(Em)"GBd "D"e2f|
"Em"g2e g2e edB|"D"f2d dcd fed|"Em"gfe "D"fed "Em"edA|"G"B/c/dB "D"AGF "Em"E2F||

